X:1
T:
M:3/4
L:1/8
K:Dm
"Dm"Dd2Dd2|"F"c3BA2|"C"G3FE2|"Bb"D6|
"Dm"DA2DA2|"C"G3FE2|"Bbmaj7"F2G2A2|"A7"A6:|
"F"Fc2Ac2|"Bb"B2c2d2|"C"G6|"F"A6|
"Bb"d3d ef|"F"cB3A2|"C"G6| [1"Dm"A6:|[2"F"F6|]
